source/assets/img/inout-linkedin-hover.svg

<?xml version="1.0" encoding="UTF-8"?>
<svg width="36px" height="36px" viewBox="0 0 36 36" version="1.1" xmlns="http://www.w3.org/2000/svg" xmlns:xlink="http://www.w3.org/1999/xlink">
    <!-- Generator: Sketch 42 (36781) - http://www.bohemiancoding.com/sketch -->
    <title>Group 10@2x</title>
    <desc>Created with Sketch.</desc>
    <defs></defs>
    <g id="Page-1" stroke="none" stroke-width="1" fill="none" fill-rule="evenodd">
        <g id="ComingSoon" transform="translate(-1365.000000, -1953.000000)">
            <g id="Group-10" transform="translate(1365.000000, 1953.000000)">
                <path d="M35.2858677,23.00323 L35.2858677,23.00323 C32.522562,32.550105 22.5434361,38.0491284 12.9966831,35.2859448 L12.9966831,35.2859448 C3.4500522,32.5227612 -2.0490933,22.543269 0.714212399,12.9968823 L0.714212399,12.9968823 C3.4775181,3.45000726 13.456644,-2.04901614 23.0032749,0.714167455 L23.003397,0.714167455 C32.5500278,3.47735106 38.0490513,13.4568433 35.2858677,23.00323 Z" id="Shape-Copy-19" fill="#494976"></path>
                <path d="M24.7764893,10 L13.2567139,10 C12.010376,10 11,11.0102539 11,12.2563477 L11,23.7763672 C11,25.022461 12.010376,26.0332031 13.2567139,26.0332031 L24.7764893,26.0332031 C26.0228272,26.0332031 27.0333252,25.0224609 27.0333252,23.7763672 L27.0333252,12.2563477 C27.0333253,11.0102539 26.0228272,10 24.7764893,10 Z M16.3452149,22.8105468 C16.3452149,22.8510741 16.3183594,22.911621 16.2646485,22.9921874 C16.1840821,23.0458983 16.1236573,23.0727538 16.0833741,23.0727538 L14.2297364,23.0727538 C14.1894532,23.0727538 14.1290284,23.0458983 14.048462,22.9921874 C13.9947511,22.911621 13.9678956,22.8510741 13.9678956,22.8105468 L13.9678956,16.3032226 C13.9678956,16.2626953 13.9947511,16.2026367 14.048462,16.1220703 C14.1290284,16.0683594 14.1894532,16.0415039 14.2297364,16.0415039 L16.0833741,16.0415039 C16.1236573,16.0415039 16.1840821,16.0683594 16.2646485,16.1220703 C16.3183594,16.2026367 16.3452149,16.2626953 16.3452149,16.3032226 L16.3452149,22.8105468 Z M16.0430909,14.9331054 C15.8012696,15.1748046 15.5057374,15.2958984 15.1564942,15.2958984 C14.8073731,15.2958984 14.5118409,15.1748046 14.2700196,14.9331054 C14.0283204,14.6914062 13.9074708,14.395996 13.9074708,14.0468749 C13.9074708,13.7109374 14.0283204,13.4218749 14.2700196,13.1801757 C14.5252686,12.9252929 14.8208008,12.7973632 15.1564942,12.7973632 C15.4923096,12.7973632 15.7878419,12.9252929 16.0430909,13.1801757 C16.2847901,13.4218749 16.4056397,13.7109374 16.4056397,14.0468749 C16.4056397,14.3959961 16.2847901,14.6914062 16.0430909,14.9331054 Z M24.2229005,22.8105468 C24.2229005,22.8779296 24.196045,22.9384765 24.1423341,22.9921874 C24.0885011,23.0458983 24.0280763,23.0727538 23.9609376,23.0727538 L22.0671388,23.0727538 C22.0268556,23.0727538 21.9663087,23.0458983 21.8857423,22.9921874 C21.8320314,22.911621 21.8051759,22.8510741 21.8051759,22.8105468 L21.8051759,18.8417968 C21.8051759,18.5058593 21.7447511,18.2441406 21.6239015,18.0561523 C21.4760744,17.8950195 21.2343751,17.8144531 20.8985597,17.8144531 C20.4687501,17.8144531 20.1597902,17.9418945 19.9718019,18.1972656 C19.7971193,18.4521484 19.709839,18.8149414 19.709839,19.2851562 L19.709839,22.8105468 C19.709839,22.8779296 19.6829835,22.9384765 19.6292726,22.9921874 C19.5755617,23.0458983 19.5151369,23.0727538 19.4479982,23.0727538 L17.5943605,23.0727538 C17.5540773,23.0727538 17.4936525,23.0458983 17.4130861,22.9921874 C17.3593752,22.911621 17.3325197,22.8510741 17.3325197,22.8105468 L17.3325197,16.3032226 C17.3325197,16.2626953 17.3593752,16.2026367 17.4130861,16.1220703 C17.4936525,16.0683594 17.5540773,16.0415039 17.5943605,16.0415039 L19.3874513,16.0415039 C19.4412843,16.0415039 19.4949952,16.0546875 19.5487062,16.081543 C19.5755617,16.0952149 19.6024171,16.1420899 19.6292726,16.2226563 L19.6292726,16.3232422 L19.6494142,16.3637695 L19.6494142,16.5249023 C20.0926515,16.0952148 20.7037355,15.8798828 21.4827882,15.8798828 C22.3558351,15.8798828 23.0274659,16.0883789 23.4975587,16.5048828 C23.9810792,16.9477539 24.2229005,17.5859375 24.2229005,18.418457 L24.2229005,22.8105468 L24.2229005,22.8105468 Z" id="Shape-Copy-23" fill="#00FFC2"></path>
            </g>
        </g>
    </g>
</svg>

<svg width="36" height="36" viewBox="0 0 36 36" xmlns="http://www.w3.org/2000/svg"><title>Group 10@2x</title><desc>Created with Sketch.</desc><g fill="none"><path d="M35.286 23.003c-2.763 9.547-12.742 15.046-22.289 12.283s-15.046-12.743-12.282-22.289c2.763-9.547 12.742-15.046 22.289-12.283s15.046 12.743 12.282 22.289z" fill="#494976"/><path d="M24.776 10h-11.52c-1.246 0-2.257 1.01-2.257 2.256v11.52c0 1.246 1.01 2.257 2.257 2.257h11.52c1.246 0 2.257-1.011 2.257-2.257v-11.52c0-1.246-1.01-2.256-2.257-2.256zm-8.431 12.811l-.081.182-.181.081h-1.854l-.181-.081-.081-.182v-6.507l.081-.181.181-.081h1.854l.181.081.081.181v6.507zm-.302-7.877c-.242.242-.537.363-.887.363-.349 0-.645-.121-.886-.363-.242-.242-.363-.537-.363-.886 0-.336.121-.625.363-.867.255-.255.551-.383.886-.383.336 0 .631.128.887.383.242.242.363.531.363.867 0 .349-.121.645-.363.886zm8.18 7.877c0 .067-.027.128-.081.182-.054.054-.114.081-.181.081h-1.894l-.181-.081-.081-.182v-3.969c0-.336-.06-.598-.181-.786-.148-.161-.39-.242-.725-.242-.43 0-.739.127-.927.383-.175.255-.262.618-.262 1.088v3.525c0 .067-.027.128-.081.182-.054.054-.114.081-.181.081h-1.854l-.181-.081-.081-.182v-6.507l.081-.181.181-.081h1.793l.161.04.081.141v.101l.02.041v.161c.443-.43 1.054-.645 1.833-.645.873 0 1.545.208 2.015.625.484.443.725 1.081.725 1.914v4.392z" fill="#00FFC2"/></g></svg>
